packages/admin/admin-icons/icons/rte-soft-hyphen.svg

<svg xmlns="http://www.w3.org/2000/svg" width="16" height="16" viewBox="0 0 16 16"><path fill="#242424" d="M0,7.90467 L0,8.09533 C0,9.03502 0.0897793,9.893 0.2693383,10.6693 C0.4531733,11.441 0.6989983,12.1196 1.0068153,12.7053 C1.3146253,13.2909 1.6566453,13.7766 2.0328653,14.1625 C2.4133553,14.5483 2.8024053,14.8275 3.1999953,15 L3.6040053,13.8696 C3.3645953,13.6835 3.1315953,13.4293 2.9050053,13.107 C2.6826953,12.7892 2.4817653,12.3966 2.3022053,11.929 C2.1226453,11.4614 1.9794253,10.9121 1.8725453,10.2811 C1.78703697,9.75529167 1.73716058,9.1648375 1.72291035,8.50975486 L1.7186353,7.89105 C1.7186353,7.07393 1.7699353,6.34987 1.8725453,5.71887 C1.9794253,5.08787 2.1226453,4.53859 2.3022053,4.07101 C2.4817653,3.60344 2.6826953,3.21077 2.9050053,2.893 C3.1315953,2.57069 3.3645953,2.31647 3.6040053,2.13035 L3.1999953,1 C2.8024053,1.16796 2.4133553,1.44715 2.0328653,1.83755 C1.6566453,2.22341 1.3146253,2.70914 1.0068153,3.29475 C0.6989983,3.88035 0.4531733,4.56128 0.2693383,5.33755 C0.0897793,6.10927 0,6.96498 0,7.90467 Z M15.9999453,7.90467 L15.9999453,8.09533 C15.9999453,8.98962 15.9037453,9.82036 15.7114453,10.5875 C15.5232453,11.3547 15.2689453,12.0379 14.9482453,12.6372 C14.6276453,13.2364 14.2685453,13.7357 13.8709453,14.1352 C13.4776453,14.5392 13.0735453,14.8275 12.6589453,15 L12.2420453,13.8696 C12.4814453,13.6835 12.7123453,13.4293 12.9346453,13.107 C13.1612453,12.7892 13.3643453,12.3966 13.5438453,11.929 C13.7234453,11.4614 13.8645453,10.9121 13.9671453,10.2811 C14.0740453,9.65013 14.1274453,8.92607 14.1274453,8.10895 L14.1274453,7.89105 C14.1274453,7.07393 14.0740453,6.34987 13.9671453,5.71887 C13.8645453,5.08787 13.7234453,4.53859 13.5438453,4.07101 C13.3643453,3.60344 13.1612453,3.21077 12.9346453,2.893 C12.7123453,2.57069 12.4814453,2.31647 12.2420453,2.13035 L12.6589453,1 C13.0735453,1.16796 13.4776453,1.45396 13.8709453,1.85798 C14.2685453,2.262 14.6276453,2.76362 14.9482453,3.36284 C15.2689453,3.96206 15.5232453,4.64527 15.7114453,5.41245 C15.9037453,6.17964 15.9999453,7.01038 15.9999453,7.90467 Z M11.4814453,7 L11.4814453,9 L4.4814453,9 L4.4814453,7 L11.4814453,7 Z"/></svg>

<svg width="16" height="16" fill="none" viewBox="0 0 16 16">
  <path fill="#242424" d="M0 7.906v.19c0 .94.09 1.798.27 2.574a8.7 8.7 0 0 0 .737 2.036c.308.586.65 1.072 1.026 1.457.38.386.77.665 1.167.838l.404-1.13a3.519 3.519 0 0 1-.699-.763 5.49 5.49 0 0 1-.603-1.178 8.655 8.655 0 0 1-.43-1.648A13.655 13.655 0 0 1 1.72 8.11v-.218c0-.817.05-1.541.154-2.172.106-.631.25-1.18.43-1.648.179-.468.38-.86.602-1.178a3.52 3.52 0 0 1 .699-.763L3.2 1.001c-.398.168-.787.447-1.167.838-.376.385-.718.871-1.026 1.457a8.685 8.685 0 0 0-.738 2.043A11.34 11.34 0 0 0 0 7.906Zm16 0v.19c0 .895-.096 1.725-.289 2.492a8.744 8.744 0 0 1-.763 2.05c-.32.6-.68 1.099-1.077 1.498-.393.404-.797.693-1.212.865l-.417-1.13c.24-.187.47-.44.693-.763.226-.318.43-.71.609-1.178.18-.468.32-1.017.423-1.648a13.1 13.1 0 0 0 .16-2.172v-.218c0-.817-.053-1.541-.16-2.172a8.37 8.37 0 0 0-.423-1.648 5.307 5.307 0 0 0-.61-1.178 3.402 3.402 0 0 0-.692-.763l.417-1.13c.415.168.819.454 1.212.858.397.404.757.906 1.077 1.505.32.599.575 1.282.763 2.05.193.767.289 1.597.289 2.492Zm-4.519-.905v2h-7v-2h7Z"/>
</svg>
